src/assets/round-link.svg

<svg width="169" height="70" viewBox="0 0 169 70" fill="none" xmlns="http://www.w3.org/2000/svg">
<path d="M7.416 41.77C6.114 41.77 4.977 41.497 4.005 40.951C3.039 40.405 2.289 39.637 1.755 38.647C1.221 37.657 0.954 36.505 0.954 35.191C0.954 34.237 1.113 33.364 1.431 32.572C1.749 31.774 2.196 31.081 2.772 30.493C3.354 29.899 4.038 29.44 4.824 29.116C5.616 28.792 6.483 28.63 7.425 28.63C8.319 28.63 9.111 28.744 9.801 28.972C10.491 29.194 11.082 29.509 11.574 29.917L10.818 31.033C10.392 30.661 9.903 30.385 9.351 30.205C8.799 30.025 8.193 29.935 7.533 29.935C6.753 29.935 6.045 30.058 5.409 30.304C4.779 30.55 4.236 30.901 3.78 31.357C3.33 31.807 2.982 32.356 2.736 33.004C2.496 33.646 2.376 34.372 2.376 35.182C2.376 36.298 2.592 37.249 3.024 38.035C3.456 38.815 4.065 39.412 4.851 39.826C5.643 40.24 6.573 40.447 7.641 40.447C8.325 40.447 8.973 40.348 9.585 40.15C10.203 39.946 10.776 39.613 11.304 39.151L11.952 40.321C11.328 40.813 10.638 41.179 9.882 41.419C9.132 41.653 8.31 41.77 7.416 41.77ZM19.9222 41.5L16.9072 36.811L19.5172 32.77H20.9662L18.3652 36.757L21.5512 41.5H19.9222ZM14.0092 41.5V32.77H15.3412V36.289H17.9422V37.459H15.3412V41.5H14.0092ZM25.922 41.77C25.298 41.77 24.758 41.656 24.302 41.428C23.846 41.2 23.495 40.882 23.249 40.474C23.003 40.06 22.88 39.577 22.88 39.025C22.88 38.569 22.997 38.152 23.231 37.774C23.471 37.39 23.846 37.072 24.356 36.82C24.872 36.562 25.544 36.391 26.372 36.307C27.2 36.223 28.208 36.247 29.396 36.379L29.441 37.432C28.463 37.306 27.635 37.261 26.957 37.297C26.285 37.333 25.745 37.429 25.337 37.585C24.929 37.741 24.632 37.942 24.446 38.188C24.266 38.434 24.176 38.704 24.176 38.998C24.176 39.502 24.353 39.895 24.707 40.177C25.061 40.459 25.553 40.6 26.183 40.6C26.711 40.6 27.185 40.501 27.605 40.303C28.025 40.105 28.358 39.832 28.604 39.484C28.85 39.136 28.973 38.737 28.973 38.287V35.74C28.973 35.296 28.877 34.915 28.685 34.597C28.493 34.279 28.211 34.033 27.839 33.859C27.473 33.685 27.026 33.598 26.498 33.598C26.042 33.598 25.586 33.667 25.13 33.805C24.68 33.943 24.239 34.171 23.807 34.489L23.375 33.4C23.903 33.028 24.446 32.77 25.004 32.626C25.562 32.482 26.093 32.41 26.597 32.41C27.395 32.41 28.067 32.536 28.613 32.788C29.159 33.04 29.573 33.412 29.855 33.904C30.137 34.396 30.278 35.005 30.278 35.731V41.5H29.018V40.393C28.706 40.837 28.277 41.179 27.731 41.419C27.185 41.653 26.582 41.77 25.922 41.77ZM38.2757 41.5V37.828C37.8377 37.942 37.4207 38.029 37.0247 38.089C36.6287 38.143 36.2057 38.17 35.7557 38.17C34.9397 38.17 34.2707 38.05 33.7487 37.81C33.2267 37.564 32.8397 37.207 32.5877 36.739C32.3417 36.265 32.2187 35.683 32.2187 34.993V32.77H33.5507V34.795C33.5507 35.503 33.7277 36.04 34.0817 36.406C34.4417 36.772 35.0507 36.955 35.9087 36.955C36.4007 36.955 36.8327 36.931 37.2047 36.883C37.5827 36.835 37.9397 36.775 38.2757 36.703V32.77H39.6077V41.5H38.2757ZM44.9767 41.77C44.3527 41.77 43.8127 41.656 43.3567 41.428C42.9007 41.2 42.5497 40.882 42.3037 40.474C42.0577 40.06 41.9347 39.577 41.9347 39.025C41.9347 38.569 42.0517 38.152 42.2857 37.774C42.5257 37.39 42.9007 37.072 43.4107 36.82C43.9267 36.562 44.5987 36.391 45.4267 36.307C46.2547 36.223 47.2627 36.247 48.4507 36.379L48.4957 37.432C47.5177 37.306 46.6897 37.261 46.0117 37.297C45.3397 37.333 44.7997 37.429 44.3917 37.585C43.9837 37.741 43.6867 37.942 43.5007 38.188C43.3207 38.434 43.2307 38.704 43.2307 38.998C43.2307 39.502 43.4077 39.895 43.7617 40.177C44.1157 40.459 44.6077 40.6 45.2377 40.6C45.7657 40.6 46.2397 40.501 46.6597 40.303C47.0797 40.105 47.4127 39.832 47.6587 39.484C47.9047 39.136 48.0277 38.737 48.0277 38.287V35.74C48.0277 35.296 47.9317 34.915 47.7397 34.597C47.5477 34.279 47.2657 34.033 46.8937 33.859C46.5277 33.685 46.0807 33.598 45.5527 33.598C45.0967 33.598 44.6407 33.667 44.1847 33.805C43.7347 33.943 43.2937 34.171 42.8617 34.489L42.4297 33.4C42.9577 33.028 43.5007 32.77 44.0587 32.626C44.6167 32.482 45.1477 32.41 45.6517 32.41C46.4497 32.41 47.1217 32.536 47.6677 32.788C48.2137 33.04 48.6277 33.412 48.9097 33.904C49.1917 34.396 49.3327 35.005 49.3327 35.731V41.5H48.0727V40.393C47.7607 40.837 47.3317 41.179 46.7857 41.419C46.2397 41.653 45.6367 41.77 44.9767 41.77ZM53.9433 41.5V33.94H50.8203V32.77H58.3983V33.94H55.2753V41.5H53.9433ZM60.3276 41.5V32.77H61.6596V40.375H63.6846C64.4586 40.375 65.0346 40.234 65.4126 39.952C65.7966 39.67 65.9886 39.241 65.9886 38.665C65.9886 38.089 65.8086 37.654 65.4486 37.36C65.0886 37.066 64.5516 36.919 63.8376 36.919H61.4166V35.794H63.9276C65.0016 35.794 65.8476 36.043 66.4656 36.541C67.0836 37.039 67.3926 37.747 67.3926 38.665C67.3926 39.259 67.2396 39.769 66.9336 40.195C66.6336 40.615 66.2106 40.939 65.6646 41.167C65.1186 41.389 64.4856 41.5 63.7656 41.5H60.3276ZM75.0599 41.77C74.7479 41.77 74.4809 41.671 74.2589 41.473C74.0429 41.269 73.9349 41.011 73.9349 40.699C73.9349 40.489 73.9829 40.306 74.0789 40.15C74.1809 39.988 74.3159 39.862 74.4839 39.772C74.6579 39.676 74.8499 39.628 75.0599 39.628C75.3779 39.628 75.6449 39.73 75.8609 39.934C76.0829 40.132 76.1939 40.387 76.1939 40.699C76.1939 40.909 76.1429 41.095 76.0409 41.257C75.9389 41.419 75.8009 41.545 75.6269 41.635C75.4589 41.725 75.2699 41.77 75.0599 41.77ZM81.2579 41.77C80.6339 41.77 80.0939 41.656 79.6379 41.428C79.1819 41.2 78.8309 40.882 78.5849 40.474C78.3389 40.06 78.2159 39.577 78.2159 39.025C78.2159 38.569 78.3329 38.152 78.5669 37.774C78.8069 37.39 79.1819 37.072 79.6919 36.82C80.2079 36.562 80.8799 36.391 81.7079 36.307C82.5359 36.223 83.5439 36.247 84.7319 36.379L84.7769 37.432C83.7989 37.306 82.9709 37.261 82.2929 37.297C81.6209 37.333 81.0809 37.429 80.6729 37.585C80.2649 37.741 79.9679 37.942 79.7819 38.188C79.6019 38.434 79.5119 38.704 79.5119 38.998C79.5119 39.502 79.6889 39.895 80.0429 40.177C80.3969 40.459 80.8889 40.6 81.5189 40.6C82.0469 40.6 82.5209 40.501 82.9409 40.303C83.3609 40.105 83.6939 39.832 83.9399 39.484C84.1859 39.136 84.3089 38.737 84.3089 38.287V35.74C84.3089 35.296 84.2129 34.915 84.0209 34.597C83.8289 34.279 83.5469 34.033 83.1749 33.859C82.8089 33.685 82.3619 33.598 81.8339 33.598C81.3779 33.598 80.9219 33.667 80.4659 33.805C80.0159 33.943 79.5749 34.171 79.1429 34.489L78.7109 33.4C79.2389 33.028 79.7819 32.77 80.3399 32.626C80.8979 32.482 81.4289 32.41 81.9329 32.41C82.7309 32.41 83.4029 32.536 83.9489 32.788C84.4949 33.04 84.9089 33.412 85.1909 33.904C85.4729 34.396 85.6139 35.005 85.6139 35.731V41.5H84.3539V40.393C84.0419 40.837 83.6129 41.179 83.0669 41.419C82.5209 41.653 81.9179 41.77 81.2579 41.77ZM88.4526 45.28V32.77H89.7216V34.156C90.0936 33.676 90.5616 33.28 91.1256 32.968C91.6896 32.656 92.4126 32.5 93.2946 32.5C94.1646 32.5 94.9296 32.707 95.5896 33.121C96.2556 33.535 96.7716 34.093 97.1376 34.795C97.5096 35.497 97.6956 36.277 97.6956 37.135C97.6956 37.771 97.5876 38.371 97.3716 38.935C97.1616 39.493 96.8616 39.985 96.4716 40.411C96.0816 40.837 95.6166 41.17 95.0766 41.41C94.5366 41.65 93.9396 41.77 93.2856 41.77C92.4816 41.77 91.7916 41.62 91.2156 41.32C90.6396 41.014 90.1626 40.612 89.7846 40.114V45.28H88.4526ZM93.0516 40.537C93.6876 40.537 94.2516 40.399 94.7436 40.123C95.2356 39.841 95.6196 39.448 95.8956 38.944C96.1776 38.434 96.3186 37.831 96.3186 37.135C96.3186 36.439 96.1776 35.836 95.8956 35.326C95.6136 34.816 95.2266 34.423 94.7346 34.147C94.2486 33.871 93.6876 33.733 93.0516 33.733C92.4156 33.733 91.8516 33.871 91.3596 34.147C90.8676 34.423 90.4806 34.816 90.1986 35.326C89.9226 35.836 89.7846 36.439 89.7846 37.135C89.7846 37.831 89.9226 38.434 90.1986 38.944C90.4806 39.448 90.8676 39.841 91.3596 40.123C91.8516 40.399 92.4156 40.537 93.0516 40.537ZM99.8608 41.5V28.54H101.193V36.775L105.198 32.77H106.818L103.713 35.983L107.403 41.5H105.774L102.741 36.847L101.193 38.386V41.5H99.8608Z" fill="#9A9A9A"/>
<path d="M103.857 18C107.584 11.5446 113.329 6.49284 120.208 3.62226C127.088 0.75169 134.719 0.221363 141.93 2.1129C149.14 4.00443 155.528 8.213 160.112 14.0909C164.696 19.9688 167.222 27.1903 167.3 34.644C167.378 42.0976 165.004 49.3704 160.544 55.343C156.084 61.3157 149.785 65.6571 142.616 67.6992C135.447 69.7413 127.806 69.3709 120.868 66.6451C113.931 63.9192 108.081 58.9889 104.219 52.6129" stroke="#F2C247" stroke-width="2"/>
<path d="M146.202 22.9007L158.301 35.0001M158.301 35.0001H128.603M158.301 35.0001L146.202 47.0995" stroke="white" stroke-width="2"/>
</svg>

<svg xmlns="http://www.w3.org/2000/svg" width="169" height="70" fill="none" viewBox="0 0 169 70">
    <path fill="#9A9A9A" d="M7.416 41.77c-1.302 0-2.439-.273-3.411-.819a5.698 5.698 0 0 1-2.25-2.304c-.534-.99-.801-2.142-.801-3.456 0-.954.159-1.827.477-2.619a6.232 6.232 0 0 1 1.341-2.079 6.088 6.088 0 0 1 2.052-1.377c.792-.324 1.659-.486 2.601-.486.894 0 1.686.114 2.376.342.69.222 1.281.537 1.773.945l-.756 1.116a4.17 4.17 0 0 0-1.467-.828 5.837 5.837 0 0 0-1.818-.27c-.78 0-1.488.123-2.124.369a4.681 4.681 0 0 0-1.629 1.053c-.45.45-.798.999-1.044 1.647-.24.642-.36 1.368-.36 2.178 0 1.116.216 2.067.648 2.853a4.38 4.38 0 0 0 1.827 1.791c.792.414 1.722.621 2.79.621.684 0 1.332-.099 1.944-.297a4.96 4.96 0 0 0 1.719-.999l.648 1.17a6.487 6.487 0 0 1-2.07 1.098 8.247 8.247 0 0 1-2.466.351Zm12.506-.27-3.015-4.689 2.61-4.041h1.45l-2.602 3.987 3.186 4.743h-1.629Zm-5.913 0v-8.73h1.332v3.519h2.601v1.17h-2.6V41.5h-1.333Zm11.913.27c-.624 0-1.164-.114-1.62-.342a2.503 2.503 0 0 1-1.053-.954c-.246-.414-.369-.897-.369-1.449 0-.456.117-.873.351-1.251.24-.384.615-.702 1.125-.954.516-.258 1.188-.429 2.016-.513.828-.084 1.836-.06 3.024.072l.045 1.053c-.978-.126-1.806-.171-2.484-.135-.672.036-1.212.132-1.62.288-.408.156-.705.357-.891.603-.18.246-.27.516-.27.81 0 .504.177.897.531 1.179.354.282.846.423 1.476.423.528 0 1.002-.099 1.422-.297a2.5 2.5 0 0 0 .999-.819c.246-.348.369-.747.369-1.197V35.74c0-.444-.096-.825-.288-1.143a1.893 1.893 0 0 0-.846-.738c-.366-.174-.813-.261-1.341-.261-.456 0-.912.069-1.368.207-.45.138-.891.366-1.323.684l-.432-1.089a4.992 4.992 0 0 1 1.629-.774 6.378 6.378 0 0 1 1.593-.216c.798 0 1.47.126 2.016.378s.96.624 1.242 1.116c.282.492.423 1.101.423 1.827V41.5h-1.26v-1.107c-.312.444-.741.786-1.287 1.026a4.546 4.546 0 0 1-1.809.351Zm12.354-.27v-3.672a12.29 12.29 0 0 1-1.251.261 9.404 9.404 0 0 1-1.27.081c-.815 0-1.484-.12-2.006-.36-.522-.246-.91-.603-1.161-1.071-.246-.474-.37-1.056-.37-1.746V32.77h1.333v2.025c0 .708.177 1.245.53 1.611.36.366.97.549 1.828.549.492 0 .924-.024 1.296-.072.378-.048.735-.108 1.07-.18V32.77h1.333v8.73h-1.332Zm6.7.27c-.623 0-1.163-.114-1.62-.342a2.503 2.503 0 0 1-1.052-.954c-.246-.414-.37-.897-.37-1.449 0-.456.118-.873.352-1.251.24-.384.615-.702 1.125-.954.516-.258 1.188-.429 2.016-.513.828-.084 1.836-.06 3.024.072l.045 1.053c-.978-.126-1.806-.171-2.484-.135-.672.036-1.212.132-1.62.288-.408.156-.705.357-.891.603-.18.246-.27.516-.27.81 0 .504.177.897.53 1.179.355.282.847.423 1.477.423.528 0 1.002-.099 1.422-.297a2.5 2.5 0 0 0 .999-.819c.246-.348.369-.747.369-1.197V35.74c0-.444-.096-.825-.288-1.143a1.893 1.893 0 0 0-.846-.738c-.366-.174-.813-.261-1.341-.261-.456 0-.912.069-1.368.207-.45.138-.891.366-1.323.684L42.43 33.4a4.992 4.992 0 0 1 1.629-.774 6.378 6.378 0 0 1 1.593-.216c.798 0 1.47.126 2.016.378s.96.624 1.242 1.116c.282.492.423 1.101.423 1.827V41.5h-1.26v-1.107c-.312.444-.741.786-1.287 1.026a4.546 4.546 0 0 1-1.81.351Zm8.967-.27v-7.56H50.82v-1.17h7.578v1.17h-3.123v7.56h-1.332Zm6.385 0v-8.73h1.332v7.605h2.025c.774 0 1.35-.141 1.728-.423.384-.282.576-.711.576-1.287s-.18-1.011-.54-1.305c-.36-.294-.897-.441-1.611-.441h-2.421v-1.125h2.51c1.075 0 1.92.249 2.539.747.618.498.927 1.206.927 2.124 0 .594-.153 1.104-.46 1.53-.3.42-.722.744-1.268.972-.546.222-1.18.333-1.9.333h-3.437Zm14.732.27c-.312 0-.58-.099-.801-.297a1.019 1.019 0 0 1-.324-.774c0-.21.048-.393.144-.549.102-.162.237-.288.405-.378.174-.096.366-.144.576-.144.318 0 .585.102.8.306a.978.978 0 0 1 .334.765 1.025 1.025 0 0 1-.567.936c-.168.09-.357.135-.567.135Zm6.198 0c-.624 0-1.164-.114-1.62-.342a2.503 2.503 0 0 1-1.053-.954c-.246-.414-.37-.897-.37-1.449 0-.456.118-.873.352-1.251.24-.384.615-.702 1.125-.954.516-.258 1.188-.429 2.016-.513.828-.084 1.836-.06 3.024.072l.045 1.053c-.978-.126-1.806-.171-2.484-.135-.672.036-1.212.132-1.62.288-.408.156-.705.357-.891.603-.18.246-.27.516-.27.81 0 .504.177.897.53 1.179.355.282.847.423 1.477.423.528 0 1.002-.099 1.422-.297a2.5 2.5 0 0 0 .999-.819c.246-.348.369-.747.369-1.197V35.74c0-.444-.096-.825-.288-1.143a1.893 1.893 0 0 0-.846-.738c-.366-.174-.813-.261-1.341-.261-.456 0-.912.069-1.368.207-.45.138-.891.366-1.323.684L78.71 33.4a4.992 4.992 0 0 1 1.629-.774 6.378 6.378 0 0 1 1.593-.216c.798 0 1.47.126 2.016.378s.96.624 1.242 1.116c.282.492.423 1.101.423 1.827V41.5h-1.26v-1.107c-.312.444-.741.786-1.287 1.026a4.546 4.546 0 0 1-1.81.351Zm7.195 3.51V32.77h1.269v1.386c.372-.48.84-.876 1.404-1.188.564-.312 1.287-.468 2.169-.468.87 0 1.635.207 2.295.621a4.246 4.246 0 0 1 1.548 1.674c.372.702.558 1.482.558 2.34a4.99 4.99 0 0 1-.324 1.8 4.52 4.52 0 0 1-.9 1.476c-.39.426-.855.759-1.395.999s-1.137.36-1.791.36c-.804 0-1.494-.15-2.07-.45a4.305 4.305 0 0 1-1.431-1.206v5.166h-1.332Zm4.599-4.743c.636 0 1.2-.138 1.692-.414a2.983 2.983 0 0 0 1.152-1.179c.282-.51.423-1.113.423-1.809s-.141-1.299-.423-1.809a2.967 2.967 0 0 0-1.161-1.179c-.486-.276-1.047-.414-1.683-.414-.636 0-1.2.138-1.692.414a2.967 2.967 0 0 0-1.161 1.179c-.276.51-.414 1.113-.414 1.809s.138 1.299.414 1.809c.282.504.669.897 1.16 1.179.493.276 1.057.414 1.693.414Zm6.809.963V28.54h1.332v8.235l4.005-4.005h1.62l-3.105 3.213 3.69 5.517h-1.629l-3.033-4.653-1.548 1.539V41.5h-1.332Z"/>
    <path stroke="#F2C247" stroke-width="2" d="M103.857 18a34 34 0 1 1 .362 34.613"/>
    <path stroke="#fff" stroke-width="2" d="M146.202 22.9 158.301 35m0 0h-29.698m29.698 0-12.099 12.1"/>
</svg>
